src/images/icons/icon-sync.svg

<svg xmlns="http://www.w3.org/2000/svg" width="48" height="48" viewBox="0 0 48 48">
  <g fill="none" fill-rule="evenodd">
    <circle cx="24" cy="24" r="24" fill="#FFE2A1"/>
    <path fill="#FF9A1A" d="M41.7995755,27.3411454 C42.213579,28.0596515 41.9690769,28.9761593 41.2505708,29.3901628 C41.0165688,29.528164 40.7570666,29.5926645 40.5005644,29.5926645 C39.9845601,29.5926645 39.4805558,29.3241623 39.2015534,28.8426582 L38.1680446,27.054643 C36.914034,32.1711865 32.7559986,36.6052242 27.3469526,37.8712349 C26.2549434,38.1277371 25.152434,38.2537382 24.0619247,38.2537382 C20.3583932,38.2537382 16.7763628,36.8062259 14.0613397,34.121203 C13.4718347,33.5376981 13.4658347,32.58819 14.0493396,31.998685 C14.6313446,31.40918 15.5808526,31.4046799 16.1703576,31.9881849 C18.9483813,34.7332082 22.8679146,35.8432177 26.6614468,34.9507101 C31.1374849,33.9022012 34.5350137,30.1401692 35.3645208,25.8906331 L33.1805022,28.4946552 C32.6494977,29.1276606 31.7014897,29.2116613 31.0684843,28.6791568 C30.4324789,28.1466523 30.3499782,27.2001442 30.8824827,26.5656388 L35.7020237,20.81759 C36.0185263,20.4440868 36.4940304,20.2505851 36.9830345,20.2880855 C37.3625378,20.3210857 37.7060407,20.4995873 37.9580428,20.7770896 C38.0405435,20.8625903 38.1080441,20.9585912 38.1695446,21.062092 L41.7995755,27.3411454 Z M17.1225657,20.8372401 C17.7570711,21.3682446 17.8395718,22.3147527 17.3085673,22.9507581 L12.4905264,28.6988069 C12.2040239,29.0408099 11.7810203,29.2358115 11.3415166,29.2358115 C11.3010163,29.2358115 11.2620159,29.2343115 11.2230156,29.2313115 C10.7400115,29.1923111 10.3050078,28.9238089 10.0560057,28.5068053 L6.21447302,22.115251 C5.78696939,21.4042449 6.01947136,20.4832371 6.72747738,20.0557335 C7.43848342,19.6297299 8.35949125,19.8607318 8.78699488,20.5687378 L9.6360021,21.9847499 C9.93600465,20.2597352 10.5435098,18.5782209 11.4795178,17.0167077 C13.5615355,13.5441781 16.9740645,11.0316568 20.8425974,10.1241491 C25.9636409,8.92113884 31.3081863,10.6296534 34.7912159,14.5776869 C35.3387206,15.2001922 35.2802201,16.1482003 34.6577148,16.6957049 C34.0352095,17.2432096 33.0887014,17.1832091 32.5411968,16.5622038 C29.7901734,13.4451773 25.5706375,12.0966658 21.5296032,13.0461739 C18.444077,13.76768 15.7200538,15.7776971 14.0535396,18.5587208 C13.0200309,20.2822354 12.4755262,22.1812516 12.4260258,24.1057679 L15.0105478,21.0232417 C15.5415523,20.3872363 16.4865603,20.3062356 17.1225657,20.8372401 Z"/>
  </g>
</svg>

<svg xmlns="http://www.w3.org/2000/svg" width="48" height="48"><g fill="none" fill-rule="evenodd"><circle cx="24" cy="24" r="24" fill="#FFE2A1"/><path fill="#FF9A1A" d="M41.8 27.341a1.499 1.499 0 0 1-1.3 2.252 1.5 1.5 0 0 1-1.298-.75l-1.034-1.788c-1.254 5.116-5.412 9.55-10.821 10.816a14.367 14.367 0 0 1-3.285.383c-3.704 0-7.286-1.448-10-4.133a1.5 1.5 0 1 1 2.108-2.133c2.778 2.745 6.698 3.855 10.491 2.963 4.476-1.049 7.874-4.81 8.704-9.06l-2.184 2.604a1.5 1.5 0 0 1-2.299-1.93l4.82-5.747a1.52 1.52 0 0 1 1.281-.53c.38.033.723.212.975.49.083.085.15.18.212.284l3.63 6.28Zm-24.677-6.504c.634.531.717 1.478.186 2.114l-4.818 5.748a1.502 1.502 0 0 1-1.268.532 1.498 1.498 0 0 1-1.167-.724l-3.842-6.392a1.502 1.502 0 0 1 .513-2.06 1.504 1.504 0 0 1 2.06.514l.849 1.416c.3-1.725.908-3.407 1.844-4.968 2.082-3.473 5.494-5.985 9.363-6.893a14.235 14.235 0 0 1 13.948 4.454 1.5 1.5 0 0 1-2.25 1.984 11.24 11.24 0 0 0-11.011-3.516c-3.086.722-5.81 2.732-7.476 5.513a11.317 11.317 0 0 0-1.628 5.547l2.585-3.083a1.499 1.499 0 0 1 2.112-.186Z"/></g></svg>
